X: 12391
T: Fanny Power
R: waltz
M: 3/4
K: Gmajor
V:1
D|"G"G2D GAB|"C"c2B A2G|"D"F2E DFD|"D"F2G A2c|
V:2
d|g2g g2d|c2c c2e|d2d dcB|ded cBA|
V:1
"G"BAG Bcd|"C"e2A A2G|"C"F2E DGF|"G"G3 G3:|
V:2
G2G GAB|c2c c2e|d2d def|gdB G3:|
V:1
Bc|"G"dB/c/d "D"dB/c/d|"Em"GBG "G"GBG|"C"ec/d/e ec/d/e|"D"AcA AcA|
V:2
zz|g3 f3|g3 d3|c3 B3|c3 A3|
V:1
"G"Bcd "C"efg|"D"fga dec|"G"BAG "D"(3A/B/c/AF|"G"G3 G3:|
V:2
BAG FGE|DcB c2E|GAB cAF|G3 GBd:|

